lib/brands/icons/ms-onenote.svg

<svg xmlns="http://www.w3.org/2000/svg" fill="none" aria-hidden="true" viewBox="0 0 48 48"><g id="ms-onenote-Icon"><g id="Group"><path id="rectangle" fill="#5D29A1" d="M16 31H40V36C40 37.1046 39.1046 38 38 38H18C16.8954 38 16 37.1046 16 36V31Z"/><rect id="rectangle_2" width="24" height="7" x="16" y="24" fill="#7F32CC"/><rect id="rectangle_3" width="24" height="7" x="16" y="17" fill="#9A40D6"/><path id="rectangle_4" fill="url(#paint0_linear_94_16654)" d="M18 10C16.8954 10 16 10.8954 16 12V36C16 37.1046 16.8954 38 18 38H32V17H40V12C40 10.8954 39.1046 10 38 10H18Z"/><path id="rectangle_5" fill="black" fill-opacity="0.3" d="M16 20C16 18.3431 17.3431 17 19 17H25C26.6569 17 28 18.3431 28 20V32C28 33.6569 26.6569 35 25 35H16V20Z"/><rect id="rectangle_6" width="18" height="18" x="8" y="15" fill="url(#paint1_linear_94_16654)" rx="2"/><path id="N" fill="white" d="M21 29V19H18.8893V24.8286L14.9631 19H13V29H15.0812V22.9571L19.155 29H21Z"/></g></g><defs><linearGradient id="paint0_linear_94_16654" x1="16" x2="32.5" y1="24" y2="24" gradientUnits="userSpaceOnUse"><stop stop-color="#8C42AC"/><stop offset="1" stop-color="#C36DEF"/></linearGradient><linearGradient id="paint1_linear_94_16654" x1="8" x2="27" y1="24" y2="24" gradientUnits="userSpaceOnUse"><stop stop-color="#44176C"/><stop offset="1" stop-color="#621F9C"/></linearGradient></defs></svg>

<svg xmlns="http://www.w3.org/2000/svg" fill="none" aria-hidden="true" viewBox="0 0 48 48"><path fill="#5D29A1" d="M16 31h24v5a2 2 0 0 1-2 2H18a2 2 0 0 1-2-2v-5Z"/><path fill="#7F32CC" d="M16 24h24v7H16z"/><path fill="#9A40D6" d="M16 17h24v7H16z"/><path fill="url(#a)" d="M18 10a2 2 0 0 0-2 2v24a2 2 0 0 0 2 2h14V17h8v-5a2 2 0 0 0-2-2H18Z"/><path fill="#000" fill-opacity=".3" d="M16 20a3 3 0 0 1 3-3h6a3 3 0 0 1 3 3v12a3 3 0 0 1-3 3h-9V20Z"/><rect width="18" height="18" x="8" y="15" fill="url(#b)" rx="2"/><path fill="#fff" d="M21 29V19h-2.11v5.829L14.962 19H13v10h2.081v-6.043L19.155 29H21Z"/><defs><linearGradient id="a" x1="16" x2="32.5" y1="24" y2="24" gradientUnits="userSpaceOnUse"><stop stop-color="#8C42AC"/><stop offset="1" stop-color="#C36DEF"/></linearGradient><linearGradient id="b" x1="8" x2="27" y1="24" y2="24" gradientUnits="userSpaceOnUse"><stop stop-color="#44176C"/><stop offset="1" stop-color="#621F9C"/></linearGradient></defs></svg>
